icons/qksms.svg

<?xml version="1.0" encoding="UTF-8" standalone="no"?>
<svg
   xmlns:dc="http://purl.org/dc/elements/1.1/"
   xmlns:cc="http://creativecommons.org/ns#"
   xmlns:rdf="http://www.w3.org/1999/02/22-rdf-syntax-ns#"
   xmlns:svg="http://www.w3.org/2000/svg"
   xmlns="http://www.w3.org/2000/svg"
   xmlns:sodipodi="http://sodipodi.sourceforge.net/DTD/sodipodi-0.dtd"
   xmlns:inkscape="http://www.inkscape.org/namespaces/inkscape"
   viewBox="0 0 32 32"
   height="32"
   width="32"
   version="1.1"
   id="svg4637"
   sodipodi:docname="qksms.svg"
   inkscape:version="0.92.1 r">
  <metadata
     id="metadata4643">
    <rdf:RDF>
      <cc:Work
         rdf:about="">
        <dc:format>image/svg+xml</dc:format>
        <dc:type
           rdf:resource="http://purl.org/dc/dcmitype/StillImage" />
        <dc:title></dc:title>
      </cc:Work>
    </rdf:RDF>
  </metadata>
  <defs
     id="defs4641" />
  <sodipodi:namedview
     pagecolor="#ffffff"
     bordercolor="#666666"
     borderopacity="1"
     objecttolerance="10"
     gridtolerance="10"
     guidetolerance="10"
     inkscape:pageopacity="0"
     inkscape:pageshadow="2"
     inkscape:window-width="640"
     inkscape:window-height="480"
     id="namedview4639"
     showgrid="false"
     inkscape:pagecheckerboard="true"
     inkscape:object-paths="true"
     inkscape:snap-intersection-paths="true"
     inkscape:object-nodes="true"
     inkscape:snap-smooth-nodes="true"
     inkscape:snap-midpoints="true"
     inkscape:snap-object-midpoints="true"
     inkscape:snap-center="true"
     inkscape:snap-text-baseline="true"
     inkscape:snap-bbox="true"
     inkscape:bbox-paths="true"
     inkscape:snap-bbox-edge-midpoints="true"
     inkscape:bbox-nodes="true"
     inkscape:snap-bbox-midpoints="true"
     inkscape:snap-nodes="true"
     inkscape:zoom="22.627417"
     inkscape:cx="26.564493"
     inkscape:cy="14.305335"
     inkscape:current-layer="svg4637" />
  <path
     style="opacity:1;fill:#ffffff;fill-opacity:1;stroke:none;stroke-width:1.40924084;stroke-miterlimit:4;stroke-dasharray:none"
     d="M 16 2.1757812 A 13.824363 13.824363 0 0 0 2.1757812 16 A 13.824363 13.824363 0 0 0 16 29.824219 A 13.824363 13.824363 0 0 0 22.134766 28.369141 C 22.930156 28.071233 23.570503 27.891163 23.974609 27.867188 C 26.295839 27.698642 27.922898 28.814728 29.824219 29.824219 C 28.814728 27.922898 27.698643 26.295839 27.867188 23.974609 C 27.889747 23.594373 28.054592 23.002372 28.320312 22.273438 L 28.320312 22.271484 A 13.824363 13.824363 0 0 0 29.824219 16 A 13.824363 13.824363 0 0 0 16 2.1757812 z M 16 6.484375 A 9.5153865 9.5153865 0 0 1 25.515625 16 A 9.5153865 9.5153865 0 0 1 24.480469 20.316406 L 24.480469 20.318359 C 24.297572 20.820089 24.183499 21.226561 24.167969 21.488281 C 24.051959 23.085996 24.820787 24.206935 25.515625 25.515625 C 24.206935 24.820786 23.085996 24.051958 21.488281 24.167969 C 21.210133 24.184472 20.770128 24.30862 20.222656 24.513672 A 9.5153865 9.5153865 0 0 1 16 25.515625 A 9.5153865 9.5153865 0 0 1 6.484375 16 A 9.5153865 9.5153865 0 0 1 16 6.484375 z "
     id="path6443" />
</svg>

<svg xmlns="http://www.w3.org/2000/svg" viewBox="0 0 32 32" height="32" width="32">
    <path d="M16 2.176A13.824 13.824 0 0 0 2.176 16 13.824 13.824 0 0 0 16 29.824a13.824 13.824 0 0 0 6.135-1.455c.795-.3 1.436-.48 1.84-.503 2.32-.168 3.948.948 5.85 1.957-1.01-1.9-2.126-3.528-1.958-5.85.023-.38.188-.972.453-1.7v-.003A13.824 13.824 0 0 0 29.824 16 13.824 13.824 0 0 0 16 2.176zm0 4.308A9.515 9.515 0 0 1 25.516 16a9.515 9.515 0 0 1-1.036 4.316v.002c-.182.502-.297.91-.312 1.17-.116 1.598.653 2.72 1.348 4.028-1.31-.695-2.43-1.464-4.028-1.348-.278.016-.718.14-1.265.346A9.515 9.515 0 0 1 16 25.516 9.515 9.515 0 0 1 6.484 16 9.515 9.515 0 0 1 16 6.484z" fill="#fff"/>
</svg>
